X: 35
T: Daqingshan gao
L: 1/8
M: 2/4
K: Bb
g> g f d [I:setbarnb 1]| 
b> c' d'/ f'/ d' | 
c'> b g d'/ f/ | 
d4 | 
b> c' d' f' | 
g f' g/ f/ d | 
B> c d/ f/ d | 
G4 |]

@@@ Tune index: 8909
